src/menu.svg

<svg width="24" height="24" viewBox="0 0 24 24" xmlns="http://www.w3.org/2000/svg" xmlns:xlink="http://www.w3.org/1999/xlink">
  <path d="M4 18h16v-2H4v2zm0-5h16v-2H4v2zm0-7v2h16V6H4z" fill="currentColor"/>
</svg>

<svg width="24" height="24" viewBox="0 0 24 24" xmlns="http://www.w3.org/2000/svg">
<path fill-rule="evenodd" clip-rule="evenodd" d="M4 18H20V16H4V18V18ZM4 13H20V11H4V13V13ZM4 6V8H20V6H4V6Z" fill="currentColor"/>
</svg>
